X: 11474
Q: "Quick."
M: 1/4
L: 1/8
K: G
[|\
g2gg | bgg2 | d2dd | gdd2 |\
g2ab | a2f2 | e2fg | f2d2 |\
ggab | bagf | agfe | dd"^D.C."ef |]


